X:265
T:Anderson's
T:Pretty Girl's Of The Village
S:Crummy, Peter  irtrad-l 2001-11-20
R:reel
M:C|
K:D
ABdf efdB|AFDE FE~E2|ABdf efdf|afeg fdBd|
ABdf e2dB|AFDE FE~E2|ABdf efdf|afeg fdd2||
fa~a2 fb~b2|afef dB~B2|fa~a2 fabf|afef defg|
fa~a2 fabf|afdf dB~B2|A2FA ABdf|afeg fdd2||
